Catalina-light/actions/16/path-outset.svg

<svg viewBox="0 0 16 16" xmlns="http://www.w3.org/2000/svg">
<defs>
<style id="current-color-scheme" type="text/css">.ColorScheme-Text {
        color:#363636;
      }
      .ColorScheme-Highlight {
        color:#3daee9;
      }</style>
</defs>
<path class="ColorScheme-Text" d="m7 7v3l3-3h-3zm7 1a6 6 0 0 0-6 6h1a5 5 0 0 1 5-5v-1z" fill="#363636"/>
<path class="ColorScheme-Highlight" d="m14 2a12 12 0 0 0-12 12h1a11 11 0 0 1 11-11z" fill="#363636"/>
</svg>

<svg xmlns="http://www.w3.org/2000/svg" viewBox="0 0 16 16">
  <defs id="defs3051">
    <style type="text/css" id="current-color-scheme">
      .ColorScheme-Text {
        color:#363636;
      }
      .ColorScheme-Highlight {
        color:#3daee9;
      }
      </style>
  </defs>
  <path 
        style="fill:currentColor;fill-opacity:1;stroke:none"
        d="M 7 7 L 7 10 L 10 7 L 7 7 z M 14 8 A 6 6 0 0 0 8 14 L 9 14 A 5 5 0 0 1 14 9 L 14 8 z "
        class="ColorScheme-Text"
        />
  <path
        style="fill:currentColor;fill-opacity:1;stroke:none"
        d="M 14,2 A 12.00001,12.00001 0 0 0 2,14 l 1,0 A 11,11 0 0 1 14,3 Z"
        class="ColorScheme-Highlight"
      />
</svg>
